X:1
T:6 Mélodies
T:Aubade
T:3. Aubade
T:Charles Gounod
T:Victor Hugo
T:6 Mélodies
T:OpenScore (CC0)
T:OpenScore (CC0)
T:OpenScore (CC0)
T:OpenScore (CC0)
C:Charles Gounod
Z:Victor Hugo
Z:OpenScore (CC0)
%%score 1 { ( 2 4 ) | ( 3 5 ) }
L:1/8
Q:1/4=100
M:3/4
K:F
V:1 treble nm="Voice"
V:2 treble nm="Piano"
V:4 treble 
V:3 bass 
V:5 bass 
V:1
"^Moderato un poco Andante" z6 | z6 | z6 | z6[Q:1/4=90][Q:1/4=80] | !fermata!z6 || %5
w: |||||
[Q:1/4=100] F G A4 | (G2 A) B c d | (A/G/F/G/) A4- | A z z2 z2 | (AB) c2 f2- | f2 e d G d | %11
w: L'au- be naît|et * ta porte est|clo- * * * se!||Ma * bel- le,|_ pour- quoi som- meil-|
 (c/d/e/d/) c4- | c2- c z z2 | z F G A B{Bd} c | B G (_e4 | (d/)c/B/c/) d4- | d z z2 z2 | %17
w: ler? _ _ _ _|_ _|A l'heure où s'é- veil-|le la ro-|* * * * se|_|
!pp! z f =e d c B |{AB} A G A4- | A2- A z z2 | z6 | z A ^F A d e | d ^c A4- | A2- A z z2 | z6 | %25
w: Ne vas– tu pas te|ré- veil- ler?|_ _||Ô ma char- mante é-|coute i- ci|_ _||
 z A F A d e | d c B4 | z!pp! A[Q:1/4=90]"^rit." d A B A |{Ac} B A A4- | A6- | %30
w: L'a- mant qui chante et|pleure aus- si!|L'a- mant qui chante et|pleure au- ssi! |_|
 A2- A[Q:1/4=80] z z2 | z6 |[Q:1/4=90] (FG) A4 | G A B2 c d | (A/G/F/G/) A4- | A z z2 z2 | %36
w: ||Tout * frappe|à ta por- te bé-|ni- * * * e |_|
 (AB) c2 f2- | f2 e d G d | (c/d/e/d/) c4- | c2- c z z2 | z F G A B{Bd} c | B G _e4 | %42
w: L'au- * ro- re|_ dit: je suis le|jour!  _ _ _ _|_ _|L'oi- seau dit: je suis|l'har- mo- ni-|
 (d/c/B/c/) d4- | d z z2 z2 | z f =e d c B |{AB} A G A4- | A2- A z z2 | z6 | z A ^F A d e | %49
w: * * * * e |_|Et moi je dis: je|suis l'a- mour! |_ _||O ma char- mante ~é-|
 d ^c A4- | A2- A z z2 | z6 | z A =F A d e | d c B4 | z!pp! A[Q:1/4=85]"^rit." d A[Q:1/4=80] B A | %55
w: coute i- ci |_ _||L'a- mant qui chante et|pleure aus- si|L'a- mant qui chante et|
{Ac} B A A4- | A6- | A2-[Q:1/4=77] A[Q:1/4=75] z[Q:1/4=70] z2 | z6 |] %59
w: pleure aus- si. |_|||
V:2
!p! [F,A,D]2 [F,A,D]2 [F,A,D]2 | x4 !>!a2- | (a/g/f/g/) a4- | (a/g/f/g/)"^dim." a3!pp! f | %4
!pp! x6 ||!pp! x6 | x6 | x6 | (a/g/f/g/) a2- a z |"^cresc." [A,CF]2 [A,CF]2 [A,CF]2 | %10
 [G,=B,F]2 [G,B,F]2 [G,B,F]2 |"^dim." [G,CE]2 [G,CE]2 [G,CE]2 |!p! (f/g/a/g/) f2- f z | %13
!pp! [F,B,DF]2 [F,B,DF]2 [F,B,DF]2 | [G,B,_EG]2 [G,B,EG]2 [G,B,EG]2 | %15
 [F,B,DF]2 [F,B,DF]2 [F,B,DF]2 | (f/_e/d/e/) f2- f z |"_cresc." x6 | x4 a2- | (a/g/^f/g/) a4 | %20
 (g/^f/e/f/) g4 | ^f z [A,D^F]2 [A,EG]2 | x4!p!"^cresc." a2- | (a/g/^f/g/) a4 | %24
"_dim." (g/=f/e/f/) g4 |!p! f x!<(! x4!<)! |!>(! [B,DF]2 [B,DF]2 [B,DF]2!>)! | %27
 [A,DF] z"^rit."!pp! [A,DF]2 [A,DG]2 | x4 !>!a2- | (a/g/f/g/) a4- |"^dim." (a/g/f/g/) a3!pp! f | %31
!pp! [Fd]4- [Fd] !fermata!z |!pp! [F,A,D]2 [F,A,D]2 [F,A,D]2 | [G,B,D]2 [G,B,D]2 [G,B,D]2 | %34
 [F,A,D]2 [F,A,D]2 [F,A,D]2 | (a/g/f/g/) a2- a z |"^cresc." [A,CF]2 [A,CF]2 [A,CF]2 | %37
 [G,=B,F]2 [G,B,F]2 [G,B,F]2 |"^dim." [G,CE]2 [G,CE]2 [G,CE]2 |!p! (f/g/a/g/) f2- f z | %40
!pp! [F,B,DF]2 [F,B,DF]2 [F,B,DF]2 | [G,B,_EG]2 [G,B,EG]2 [G,B,EG]2 | %42
 [F,B,DF]2 [F,B,DF]2 [F,B,DF]2 | (f/_e/d/e/) f2- f z | [A,DF]2 [A,DF]2 [A,DF]2 |"^dim." x4 a2- | %46
!pp! (a/g/^f/g/) a4 | (g/^f/e/f/) g4 | ^f z [A,D^F]2 [A,EG]2 | x4"^cresc." a2- | %50
 (a/g/^f/g/) a2 x2 |"^dim." (g/=f/e/f/) g4 |!p! f z!<(! x4!<)! |!>(! [B,DF]2 [B,DF]2 [B,DF]2!>)! | %54
 [A,DF] z!pp! [A,DF]2 [A,DG]2 | x4"^dim." !>!a2- | (a/g/f/g/) a4- | (a/g/f/g/) a3!pp! f | %58
 d4- d !fermata!z |] %59
V:3
!ped! [D,,A,,D,]2 [D,,A,,D,]2 [D,,A,,D,]2 | [D,,A,,D,]2 [D,,A,,D,]2 [D,A,F]2!ped-up! | %2
!ped! [D,A,E]2!ped-up!!ped! [D,A,F]2 [D,A,F]2!ped-up! | %3
!ped! [D,A,E]2 [D,A,F]!ped-up!"^rit." z [D,A,F] z | [D,A,]4- [D,A,] !fermata!z || %5
"^a tempo"!ped! [D,,A,,D,]2 [D,,A,,D,]2 [D,,A,,D,]2!ped-up! | %6
!ped! [D,,G,,D,]2 [D,,G,,D,]2 [D,,G,,D,]2!ped-up! |!ped! [D,,A,,D,]2 [D,,A,,D,]2 [D,,A,,D,]2 | %8
 [D,A,F]2 [D,A,F]2 [D,A,F]2!ped-up! |!ped! [F,,C,F,]2 [F,,C,F,]2 [F,,C,F,]2!ped-up! | %10
!ped! G,,2 G,,2 G,,2!ped-up! |!ped! [C,,C,]2 [C,,C,]2 [C,,C,]2!ped-up! | %12
!ped! [F,,C,_E,A,]2 [A,C_EF]2 [A,CEF]2!ped-up! |!ped! [B,,,B,,]2 [B,,,B,,]2 [B,,,B,,]2!ped-up! | %14
!ped! [B,,,_E,,B,,]2 [B,,,E,,B,,]2 [B,,,E,,B,,]2!ped-up! | %15
!ped! [B,,,B,,]2 [B,,,B,,]2 [B,,,B,,]2!ped-up! |!ped! [^G,D]2 [G,D]2 [G,D]2!ped-up! | %17
!ped! A,,2 A,,2 A,,2!ped-up! |!ped! [A,,E,]2 [A,,E,]2 [A,E]2!ped-up! | %19
!ped! [D,,A,,^F,]2 [A,=C^F]2 [A,CF]2!ped-up! |!ped! [D,=B,D]2 [D,B,E]2!ped-up! [D,B,E]2 | %21
 [D,A,D] z D,2 D,2 | A,,2!ped! A,,2 [A,EG]2!ped-up! |!ped! [D,,A,,^F,]2 [A,=CF]2 [A,CF]2!ped-up! | %24
!ped! [D,_B,D]2 [D,B,E]2!ped-up! [D,B,E]2 | [D,A,D] z D,2 C,2 | F,6- | F, z A,,2 A,,2 | %28
 A,,2!ped! D,,2 [D,A,F]2!ped-up! |!ped! [D,A,E]2!ped-up!!ped! [D,A,F]2 [D,A,F]2!ped-up! | %30
!ped! [D,A,E]2 [D,A,F]!ped-up!"^rit." z [D,A,F] z | [D,A,]4- [D,A,] !fermata!z | %32
!ped! [D,,A,,D,]2 [D,,A,,D,]2 [D,,A,,D,]2!ped-up! | %33
!ped! [D,,G,,D,]2 [D,,G,,D,]2 [D,,G,,D,]2!ped-up! | %34
!ped! [D,,A,,D,]2 [D,,A,,D,]2 [D,,A,,D,]2!ped-up! | [D,A,F]2 [D,A,F]2 [D,A,F]2 | %36
!ped! [F,,C,F,]2 [F,,C,F,]2 [F,,C,F,]2!ped-up! |!ped! G,,2 G,,2 G,,2!ped-up! | %38
!ped! [C,,C,]2 [C,,C,]2 [C,,C,]2!ped-up! |!ped! [F,,C,_E,A,]2 [A,C_EF]2 [A,CEF]2!ped-up! | %40
!ped! [B,,,B,,]2 [B,,,B,,]2 [B,,,B,,]2!ped-up! | %41
!ped! [B,,,_E,,B,,]2 [B,,,E,,B,,]2 [B,,,E,,B,,]2!ped-up! |!ped! [B,,,B,,]2 [B,,,B,,]2 [B,,,B,,]2 | %43
 [^G,D]2 [G,D]2 [G,D]2!ped-up! |!ped! A,,2 A,,2 A,,2!ped-up! | %45
!ped! [A,,E,]2 [A,,E,]2 [A,E]2!ped-up! |!ped! [D,,A,,^F,]2 [A,=C^F]2 [A,CF]2!ped-up! | %47
!ped! [D,=B,D]2 [D,B,E]2!ped-up! [D,A,E]2 | [D,A,D] z D,2 D,2 | A,,2!ped! A,,2 [A,EG]2!ped-up! | %50
!ped! [D,,A,,^F,]2 [A,=C^F]2 [A,CF]2!ped-up! |!ped! [D,_B,D]2 [D,B,E]2!ped-up! [D,B,E]2 | %52
 [D,A,D] z D,2 C,2 | F,6- | F, z A,,2 A,,2 | A,,2!ped! D,,2 [D,A,F]2!ped-up! | %56
!ped! [D,A,E]2!ped-up!!ped! [D,A,F]2 [D,A,F]2!ped-up! | %57
!ped! [D,A,E]2 [D,A,F]!ped-up!"^rit." z [D,A,F] z | [D,A,]4- [D,A,] !fermata!z |] %59
V:4
 x6 | [F,A,D]2 [F,A,D]2 [Ad]2 | [A^c]2 [Ad]2 [Ad]2 | [A^c]2 [Ad] z A z | [Fd]4- [Fd] !fermata!z || %5
 [F,A,D]2 [F,A,D]2 [F,A,D]2 | [G,B,D]2 [G,B,D]2 [G,B,D]2 | [F,A,D]2 [F,A,D]2 [F,A,D]2 | %8
 [Ad]2 [Ad]2 [Ad]2 | x6 | x6 | x6 | x6 | x6 | x6 | x6 | [FB]2 [FB]2 [FB]2 | %17
 [A,DF]2 [A,DF]2 [A,DF]2 | [A,^CE]2 [A,CE]2 [A^c]2 | [Ad]2 [Ad]2 [Ad]2 | [Gd]2 [Gd]2 [G^c]2 | %21
 [^Fd] x x4 | [A,D^F]2 [A,^CE]2 [Ac]2 | [Ad]2 [Ad]2 [Ad]2 | [Gd]2 [Gd]2 [G^c]2 | %25
 [Fd] z [A,DF]2 [A,DF]2 | x6 | x6 | [^A,CE]2 [A,DF]2 [Ad]2 | [A^c]2 [Ad]2 [Ad]2 | %30
 [A^c]2 [Ad] z A z | x6 | x6 | x6 | x6 | [Ad]2 [Ad]2 [Ad]2 | x6 | x6 | x6 | x6 | x6 | x6 | x6 | %43
 [FB]2 [FB]2 [FB]2 | x6 | [A,^CE]2 [A,CE]2 [A^c]2 | [Ad]2 [Ad]2 [Ad]2 | [Gd]2 [Gd]2 [G^c]2 | %48
 [^Fd] x5 | [A,D^F]2 [A,^CE]2 [Ac]2 | [Ad]2 [Ad]2 [Ad]2 | [Gd]2 [Gd]2 [G^c]2 | %52
 [Fd] x [A,DF]2 [A,DF]2 | x6 | x6 | [^A,CE]2 [A,DF]2 [Ad]2 | [A^c]2 [Ad]2 [Ad]2 | %57
 [A^c]2 [Ad] z A z | F4- F x |] %59
V:5
 x6 | x6 | x6 | x6 | x6 || x6 | x6 | x6 | x6 | x6 | x6 | x6 | x6 | x6 | x6 | x6 | x6 | x6 | x6 | %19
 x6 | x6 | x6 | x6 | x6 | x6 | x6 | B,,2 F,,2 G,,2 | A,, x5 | x6 | x6 | x6 | x6 | x6 | x6 | x6 | %35
 x6 | x6 | x6 | x6 | x6 | x6 | x6 | x6 | x6 | x6 | x6 | x6 | x6 | x6 | x6 | x6 | x6 | x6 | %53
 B,,2 F,,2 G,,2 | A,, x5 | x6 | x6 | x6 | x6 |] %59

